usr/share/icons/biglinux-icons-material-dark/symbolic/actions/format-text-direction-vertical.svg

<svg xmlns="http://www.w3.org/2000/svg" viewBox="0 0 16 16">
  <defs id="defs3051">
    <style type="text/css" id="current-color-scheme">
      .ColorScheme-Text {
        color:#dedede;
      }
      </style>
  </defs>
 <path style="fill:currentColor;fill-opacity:1;stroke:none" 
       d="M 4.625 2 L 2 9 L 2.8125 9 L 3.65625 6.78125 L 6.375 6.78125 L 7.1875 9 L 8 9 L 5.4375 2 L 4.625 2 z M 9 2 L 9 11 L 10 11 L 10 2 L 9 2 z M 12 2 L 12 11 L 13 11 L 13 2 L 12 2 z M 5.03125 2.84375 C 5.09915 3.08307 5.47376 4.16349 6.125 6.09375 L 3.90625 6.09375 L 5.03125 2.84375 z M 3 10 L 3 11 L 4 11 L 4 10 L 3 10 z M 6 10 L 6 11 L 7 11 L 7 10 L 6 10 z M 3 12 L 5 14 L 7 12 L 3 12 z M 9 12 L 11 14 L 13 12 L 9 12 z "
     class="ColorScheme-Text"
     />
</svg>

<svg xmlns="http://www.w3.org/2000/svg" viewBox="0 0 16 16">
<defs id="defs3051">
<style id="current-color-scheme" type="text/css">
.ColorScheme-Contrast{color:#dedede}
</style>
</defs>
<path d="M4.625 2 2 9h.813l.843-2.219h2.719L7.188 9H8L5.438 2zM9 2v9h1V2zm3 0v9h1V2zm-6.969.844c.068.24.443 1.32 1.094 3.25H3.906zM3 10v1h1v-1zm3 0v1h1v-1zm-3 2 2 2 2-2zm6 0 2 2 2-2z" class="ColorScheme-Contrast" style="fill:currentColor;fill-opacity:1;stroke:none"/>
</svg>
